X:1
T: The ``Boss''
C:
R:Jig
Q:180
K:Bb
M:6/8
L:1/16
b4B2 B2A2B2|G2B2B2 F2B2B2|b4B2 B2A2B2|G2c2B2 A2G2F2|
b4B2 B2A2B2|G2B2B2 F2B2B2|G2B2B2 A2c2c2|d2B2B2 B6|
|:d2f2f2 f2d2B2|d2f2f2 f2d2B2|d2f2f2 f2d2B2|e2c2c2 c6|
d2f2f2 f2d2B2|d2f2f2 f2d2B2|b2a2g2 f2e2d2|c2d2B2 A2G2F2:|
b4B2 B2A2B2|G2B2B2 F2B2B2|b4B2 B2A2B2|G2c2B2 A2G2F2|
b4B2 B2A2B2|G2B2B2 F2B2B2|G2B2B2 A2c2c2|d2B2B2 B6||
